X:1
T:The Newcombe Gauger
M:4/4
L:1/4
K:C
 G,/2| CC/2-C/2 E E| F F G G| c c G/2G/2 A| _B A G G| c c G/2G/2 G|\
 F A G E| GG/2-G/2 FB,/2-B,/2| D2 C z/2||
